X: 558
M:C
L:1/8
K:A
!f!(a/2f/2) !segno!| {gf}e2 Ac/2d/2 e>cA>a | {gf}e2 Ac/2d/2 d>B=G>f | {gf}e2 Ac/2d/2 e>Ac>A | (BE) E/2E/2E d>B=G :]
cA c/2d/2e {/d}T(c<A)AB | cA c/2d/2e (d<B)=GB | cA c/2d/2e {/d}T(c<A){/d}(c<A) | (BE) c/2d/2e d<B=GB !segno!|]


